X: 22741
T: Lancer's, The
R: jig
M: 6/8
K: Dmajor
|:F2D FGA|~B2A Bcd|ABA FED|EFE E2E|
F2D FGA|~B2A Bcd|ABA GFE|1 FED D2E:|2 FED D2B/c/||
|:dcd edc|dcB A2F|GFE FED|EFE E2B|
dcd edc|dcB A2F|GFG BAG|1 FED D2B/c/:|2 FED D2E||

